X: 20641
T: POOR JOE THE MARINE
Q: "Moderato"
%R: jig
B: "Edinburgh Repository of Music" v.2 p.64 #1
F: http://digital.nls.uk/special-collections-of-printed-music/pageturner.cfm?id=87776133
Z: 2015 John Chambers <jc:trillian.mit.edu>
M: 6/8
L: 1/8
K: C
G |\
(c>ed) (cBA) | (G>AF) E2c | B>G^G A<fd | (c3 B2)d |\
dcB {c}BAB | c<EA {G}^F2E | D>E^F G>AB | c2z d3 |\
ecB cA^F | G3- Gz B |
B>cd dcB | c>BA ^G2e |\
c>BA {B}A^GA | E3- E2z =G/F/ | EGc e2d/c/ | c>AA HA2 B/c/ |\
G<Ec Hc2 c | B>Gd H=F2 G | (c>de) (d>cB) | c3- c2 |]
